report_00007_2020-12-11T15:55:29.892Z/cumulative-layout-shift/comparison/line/10_vs_11.svg

<svg width="640" height="500" xmlns="http://www.w3.org/2000/svg" xmlns:xlink="http://www.w3.org/1999/xlink"><path fill="#fff" d="M0 0h640v500H0z"/><defs><path id="d" stroke-width=".222" stroke="currentColor" d="M-1-1h2v2h-2z"/><path id="b" stroke-width=".222" stroke="currentColor" d="M0-1.33l-1.33 2h2.66z"/><path id="f" stroke-width=".222" stroke="currentColor" d="M0 1.33L1.265.411.782-1.067l-1.564-.009-.483 1.487z"/><use xlink:href="#b" id="c" stroke="currentColor" transform="rotate(180)"/><use xlink:href="#d" id="e" stroke="currentColor" transform="rotate(45)"/><circle id="a" stroke-width=".222" stroke="currentColor" cx="0" cy="0" r="1"/></defs><g fill="none" color="#000" stroke="currentColor"><path stroke="#000" d="M62.2 384.8h9m543.8 0h-9"/><text transform="translate(53.9 388.7)" stroke="none" fill="#000" font-family="Arial" font-size="12" text-anchor="end"><tspan>0</tspan></text></g><g fill="none" color="#000" stroke="currentColor"><path stroke="#000" d="M62.2 328.4h9m543.8 0h-9"/><text transform="translate(53.9 332.3)" stroke="none" fill="#000" font-family="Arial" font-size="12" text-anchor="end"><tspan>0.05</tspan></text></g><g fill="none" color="#000" stroke="currentColor"><path stroke="#000" d="M62.2 272h9m543.8 0h-9"/><text transform="translate(53.9 275.9)" stroke="none" fill="#000" font-family="Arial" font-size="12" text-anchor="end"><tspan>0.1</tspan></text></g><g fill="none" color="#000" stroke="currentColor"><path stroke="#000" d="M62.2 215.7h9m543.8 0h-9"/><text transform="translate(53.9 219.6)" stroke="none" fill="#000" font-family="Arial" font-size="12" text-anchor="end"><tspan>0.15</tspan></text></g><g fill="none" color="#000" stroke="currentColor"><path stroke="#000" d="M62.2 159.3h9m543.8 0h-9"/><text transform="translate(53.9 163.2)" stroke="none" fill="#000" font-family="Arial" font-size="12" text-anchor="end"><tspan>0.2</tspan></text></g><g fill="none" color="#000" stroke="currentColor"><path stroke="#000" d="M62.2 102.9h9m543.8 0h-9"/><text transform="translate(53.9 106.8)" stroke="none" fill="#000" font-family="Arial" font-size="12" text-anchor="end"><tspan>0.25</tspan></text></g><g fill="none" color="#000" stroke="currentColor"><path stroke="#000" d="M62.2 46.5h9m543.8 0h-9"/><text transform="translate(53.9 50.4)" stroke="none" fill="#000" font-family="Arial" font-size="12" text-anchor="end"><tspan>0.3</tspan></text></g><g fill="none" color="#000" stroke="currentColor"><path stroke="#000" d="M62.2 392v-9m0-364.9v9"/><text transform="translate(62.2 413.9)" stroke="none" fill="#000" font-family="Arial" font-size="12" text-anchor="middle"><tspan>0</tspan></text></g><g fill="none" color="#000" stroke="currentColor"><path stroke="#000" d="M118 392v-9m0-364.9v9"/><text transform="translate(118 413.9)" stroke="none" fill="#000" font-family="Arial" font-size="12" text-anchor="middle"><tspan>10</tspan></text></g><g fill="none" color="#000" stroke="currentColor"><path stroke="#000" d="M173.9 392v-9m0-364.9v9"/><text transform="translate(173.9 413.9)" stroke="none" fill="#000" font-family="Arial" font-size="12" text-anchor="middle"><tspan>20</tspan></text></g><g fill="none" color="#000" stroke="currentColor"><path stroke="#000" d="M229.7 392v-9m0-364.9v9"/><text transform="translate(229.7 413.9)" stroke="none" fill="#000" font-family="Arial" font-size="12" text-anchor="middle"><tspan>30</tspan></text></g><g fill="none" color="#000" stroke="currentColor"><path stroke="#000" d="M285.6 392v-9m0-364.9v9"/><text transform="translate(285.6 413.9)" stroke="none" fill="#000" font-family="Arial" font-size="12" text-anchor="middle"><tspan>40</tspan></text></g><g fill="none" color="#000" stroke="currentColor"><path stroke="#000" d="M341.4 392v-9m0-364.9v9"/><text transform="translate(341.4 413.9)" stroke="none" fill="#000" font-family="Arial" font-size="12" text-anchor="middle"><tspan>50</tspan></text></g><g fill="none" color="#000" stroke="currentColor"><path stroke="#000" d="M397.2 392v-9m0-364.9v9"/><text transform="translate(397.2 413.9)" stroke="none" fill="#000" font-family="Arial" font-size="12" text-anchor="middle"><tspan>60</tspan></text></g><g fill="none" color="#000" stroke="currentColor"><path stroke="#000" d="M453.1 392v-9m0-364.9v9"/><text transform="translate(453.1 413.9)" stroke="none" fill="#000" font-family="Arial" font-size="12" text-anchor="middle"><tspan>70</tspan></text></g><g fill="none" color="#000" stroke="currentColor"><path stroke="#000" d="M508.9 392v-9m0-364.9v9"/><text transform="translate(508.9 413.9)" stroke="none" fill="#000" font-family="Arial" font-size="12" text-anchor="middle"><tspan>80</tspan></text></g><g fill="none" color="#000" stroke="currentColor"><path stroke="#000" d="M564.7 392v-9m0-364.9v9"/><text transform="translate(564.7 413.9)" stroke="none" fill="#000" font-family="Arial" font-size="12" text-anchor="middle"><tspan>90</tspan></text></g><path stroke="#000" d="M62.2 18.1V392H615V18.1H62.2z" fill="none" color="#000"/><text transform="translate(487.6 431.9)" stroke="none" fill="#000" font-family="Arial" font-size="12" text-anchor="end" color="#000"><tspan>pages+cached+noexternal+nojs</tspan></text><path stroke="#9400D3" d="M495.9 428h42.2M62.2 384.8H615" fill="none" color="#000"/><text transform="translate(487.6 449.9)" stroke="none" fill="#000" font-family="Arial" font-size="12" text-anchor="end" color="#000"><tspan>pages+cached+noexternal+nofonts+nosvg+noimg</tspan></text><path stroke="#009E73" d="M495.9 446h42.2M62.2 163h11.2L79 25.3 84.5 163h5.6l5.6 177.9 5.6-177.9h33.5l5.6 177.9L146 25.3l5.5 281.5 5.6-143.8h5.6l5.6-9.7 5.6 187.6 5.6-177.9 5.5-9.7h11.2l5.6 9.7h5.6l5.6-9.7 5.5 9.7h5.6l5.6 143.8 5.6 34.1 5.6-187.6h5.6l5.6 9.7 5.5-34 5.6 34h5.6l5.6-108.3L280 163h16.7l5.6-34 5.6 177.8 5.6 34.1 5.6-177.9 5.5-9.7 5.6 9.7h5.6l5.6 177.9L347 163l5.6-9.7 5.5 9.7h11.2l5.6-137.7 5.6 128 5.6 9.7 5.5 143.8 5.6-153.5 5.6 187.6 5.6-315.6 5.6 315.6 5.6-187.6 5.5-34 5.6 221.6 5.6-211.9 5.6 34 5.6-9.7 5.6-24.3h5.6l5.5 211.9 5.6-221.6 5.6 187.5L481 163l5.6-9.7 5.6 187.6 5.5-177.9 5.6-137.7 5.6 137.7 5.6 177.9h5.6l5.6-315.6 5.5 137.7h11.2l5.6-43.7 5.6-94h5.6l5.5 315.6 5.6-211.9 5.6 34H598.2l5.6 143.8 5.6-143.8 5.6 177.9" fill="none" color="#000"/><text transform="translate(487.6 467.9)" stroke="none" fill="#000" font-family="Arial" font-size="12" text-anchor="end" color="#000"><tspan>score p10=0.1</tspan></text><path stroke="#56B4E9" d="M495.9 464h42.2M62.2 272H615" fill="none" color="#000"/><g><text transform="translate(487.6 485.9)" stroke="none" fill="#000" font-family="Arial" font-size="12" text-anchor="end" color="#000"><tspan>score median=0.25</tspan></text><path stroke="#E69F00" d="M495.9 482h42.2M62.2 102.9H615" fill="none" color="#000"/></g><g fill="none" color="#000" stroke="currentColor"><path stroke="#000" d="M62.2 18.1V392H615V18.1H62.2z"/></g></svg>

<?xml version="1.0" encoding="utf-8"  standalone="no"?>
<svg 
 width="640" height="500"
 viewBox="0 0 640 500"
 xmlns="http://www.w3.org/2000/svg"
 xmlns:xlink="http://www.w3.org/1999/xlink"
>

<title>Gnuplot</title>
<desc>Produced by GNUPLOT 5.4 patchlevel 0 </desc>

<g id="gnuplot_canvas">

<rect x="0" y="0" width="640" height="500" fill="#ffffff"/>
<defs>

	<circle id='gpDot' r='0.5' stroke-width='0.5' stroke='currentColor'/>
	<path id='gpPt0' stroke-width='0.222' stroke='currentColor' d='M-1,0 h2 M0,-1 v2'/>
	<path id='gpPt1' stroke-width='0.222' stroke='currentColor' d='M-1,-1 L1,1 M1,-1 L-1,1'/>
	<path id='gpPt2' stroke-width='0.222' stroke='currentColor' d='M-1,0 L1,0 M0,-1 L0,1 M-1,-1 L1,1 M-1,1 L1,-1'/>
	<rect id='gpPt3' stroke-width='0.222' stroke='currentColor' x='-1' y='-1' width='2' height='2'/>
	<rect id='gpPt4' stroke-width='0.222' stroke='currentColor' fill='currentColor' x='-1' y='-1' width='2' height='2'/>
	<circle id='gpPt5' stroke-width='0.222' stroke='currentColor' cx='0' cy='0' r='1'/>
	<use xlink:href='#gpPt5' id='gpPt6' fill='currentColor' stroke='none'/>
	<path id='gpPt7' stroke-width='0.222' stroke='currentColor' d='M0,-1.33 L-1.33,0.67 L1.33,0.67 z'/>
	<use xlink:href='#gpPt7' id='gpPt8' fill='currentColor' stroke='none'/>
	<use xlink:href='#gpPt7' id='gpPt9' stroke='currentColor' transform='rotate(180)'/>
	<use xlink:href='#gpPt9' id='gpPt10' fill='currentColor' stroke='none'/>
	<use xlink:href='#gpPt3' id='gpPt11' stroke='currentColor' transform='rotate(45)'/>
	<use xlink:href='#gpPt11' id='gpPt12' fill='currentColor' stroke='none'/>
	<path id='gpPt13' stroke-width='0.222' stroke='currentColor' d='M0,1.330 L1.265,0.411 L0.782,-1.067 L-0.782,-1.076 L-1.265,0.411 z'/>
	<use xlink:href='#gpPt13' id='gpPt14' fill='currentColor' stroke='none'/>
	<filter id='textbox' filterUnits='objectBoundingBox' x='0' y='0' height='1' width='1'>
	  <feFlood flood-color='#FFFFFF' flood-opacity='1' result='bgnd'/>
	  <feComposite in='SourceGraphic' in2='bgnd' operator='atop'/>
	</filter>
	<filter id='greybox' filterUnits='objectBoundingBox' x='0' y='0' height='1' width='1'>
	  <feFlood flood-color='lightgrey' flood-opacity='1' result='grey'/>
	  <feComposite in='SourceGraphic' in2='grey' operator='atop'/>
	</filter>
</defs>
<g fill="none" color="#FFFFFF" stroke="black" stroke-width="1.00" stroke-linecap="butt" stroke-linejoin="miter">
</g>
<g fill="none" color="black" stroke="currentColor" stroke-width="1.00" stroke-linecap="butt" stroke-linejoin="miter">
	<path stroke='black'  d='M62.2,384.8 L71.2,384.8 M615.0,384.8 L606.0,384.8  '/>	<g transform="translate(53.9,388.7)" stroke="none" fill="black" font-family="Arial" font-size="12.00"  text-anchor="end">
		<text><tspan font-family="Arial" > 0</tspan></text>
	</g>
</g>
<g fill="none" color="black" stroke="currentColor" stroke-width="1.00" stroke-linecap="butt" stroke-linejoin="miter">
	<path stroke='black'  d='M62.2,328.4 L71.2,328.4 M615.0,328.4 L606.0,328.4  '/>	<g transform="translate(53.9,332.3)" stroke="none" fill="black" font-family="Arial" font-size="12.00"  text-anchor="end">
		<text><tspan font-family="Arial" > 0.05</tspan></text>
	</g>
</g>
<g fill="none" color="black" stroke="currentColor" stroke-width="1.00" stroke-linecap="butt" stroke-linejoin="miter">
	<path stroke='black'  d='M62.2,272.0 L71.2,272.0 M615.0,272.0 L606.0,272.0  '/>	<g transform="translate(53.9,275.9)" stroke="none" fill="black" font-family="Arial" font-size="12.00"  text-anchor="end">
		<text><tspan font-family="Arial" > 0.1</tspan></text>
	</g>
</g>
<g fill="none" color="black" stroke="currentColor" stroke-width="1.00" stroke-linecap="butt" stroke-linejoin="miter">
	<path stroke='black'  d='M62.2,215.7 L71.2,215.7 M615.0,215.7 L606.0,215.7  '/>	<g transform="translate(53.9,219.6)" stroke="none" fill="black" font-family="Arial" font-size="12.00"  text-anchor="end">
		<text><tspan font-family="Arial" > 0.15</tspan></text>
	</g>
</g>
<g fill="none" color="black" stroke="currentColor" stroke-width="1.00" stroke-linecap="butt" stroke-linejoin="miter">
	<path stroke='black'  d='M62.2,159.3 L71.2,159.3 M615.0,159.3 L606.0,159.3  '/>	<g transform="translate(53.9,163.2)" stroke="none" fill="black" font-family="Arial" font-size="12.00"  text-anchor="end">
		<text><tspan font-family="Arial" > 0.2</tspan></text>
	</g>
</g>
<g fill="none" color="black" stroke="currentColor" stroke-width="1.00" stroke-linecap="butt" stroke-linejoin="miter">
	<path stroke='black'  d='M62.2,102.9 L71.2,102.9 M615.0,102.9 L606.0,102.9  '/>	<g transform="translate(53.9,106.8)" stroke="none" fill="black" font-family="Arial" font-size="12.00"  text-anchor="end">
		<text><tspan font-family="Arial" > 0.25</tspan></text>
	</g>
</g>
<g fill="none" color="black" stroke="currentColor" stroke-width="1.00" stroke-linecap="butt" stroke-linejoin="miter">
	<path stroke='black'  d='M62.2,46.5 L71.2,46.5 M615.0,46.5 L606.0,46.5  '/>	<g transform="translate(53.9,50.4)" stroke="none" fill="black" font-family="Arial" font-size="12.00"  text-anchor="end">
		<text><tspan font-family="Arial" > 0.3</tspan></text>
	</g>
</g>
<g fill="none" color="black" stroke="currentColor" stroke-width="1.00" stroke-linecap="butt" stroke-linejoin="miter">
	<path stroke='black'  d='M62.2,392.0 L62.2,383.0 M62.2,18.1 L62.2,27.1  '/>	<g transform="translate(62.2,413.9)" stroke="none" fill="black" font-family="Arial" font-size="12.00"  text-anchor="middle">
		<text><tspan font-family="Arial" > 0</tspan></text>
	</g>
</g>
<g fill="none" color="black" stroke="currentColor" stroke-width="1.00" stroke-linecap="butt" stroke-linejoin="miter">
	<path stroke='black'  d='M118.0,392.0 L118.0,383.0 M118.0,18.1 L118.0,27.1  '/>	<g transform="translate(118.0,413.9)" stroke="none" fill="black" font-family="Arial" font-size="12.00"  text-anchor="middle">
		<text><tspan font-family="Arial" > 10</tspan></text>
	</g>
</g>
<g fill="none" color="black" stroke="currentColor" stroke-width="1.00" stroke-linecap="butt" stroke-linejoin="miter">
	<path stroke='black'  d='M173.9,392.0 L173.9,383.0 M173.9,18.1 L173.9,27.1  '/>	<g transform="translate(173.9,413.9)" stroke="none" fill="black" font-family="Arial" font-size="12.00"  text-anchor="middle">
		<text><tspan font-family="Arial" > 20</tspan></text>
	</g>
</g>
<g fill="none" color="black" stroke="currentColor" stroke-width="1.00" stroke-linecap="butt" stroke-linejoin="miter">
	<path stroke='black'  d='M229.7,392.0 L229.7,383.0 M229.7,18.1 L229.7,27.1  '/>	<g transform="translate(229.7,413.9)" stroke="none" fill="black" font-family="Arial" font-size="12.00"  text-anchor="middle">
		<text><tspan font-family="Arial" > 30</tspan></text>
	</g>
</g>
<g fill="none" color="black" stroke="currentColor" stroke-width="1.00" stroke-linecap="butt" stroke-linejoin="miter">
	<path stroke='black'  d='M285.6,392.0 L285.6,383.0 M285.6,18.1 L285.6,27.1  '/>	<g transform="translate(285.6,413.9)" stroke="none" fill="black" font-family="Arial" font-size="12.00"  text-anchor="middle">
		<text><tspan font-family="Arial" > 40</tspan></text>
	</g>
</g>
<g fill="none" color="black" stroke="currentColor" stroke-width="1.00" stroke-linecap="butt" stroke-linejoin="miter">
	<path stroke='black'  d='M341.4,392.0 L341.4,383.0 M341.4,18.1 L341.4,27.1  '/>	<g transform="translate(341.4,413.9)" stroke="none" fill="black" font-family="Arial" font-size="12.00"  text-anchor="middle">
		<text><tspan font-family="Arial" > 50</tspan></text>
	</g>
</g>
<g fill="none" color="black" stroke="currentColor" stroke-width="1.00" stroke-linecap="butt" stroke-linejoin="miter">
	<path stroke='black'  d='M397.2,392.0 L397.2,383.0 M397.2,18.1 L397.2,27.1  '/>	<g transform="translate(397.2,413.9)" stroke="none" fill="black" font-family="Arial" font-size="12.00"  text-anchor="middle">
		<text><tspan font-family="Arial" > 60</tspan></text>
	</g>
</g>
<g fill="none" color="black" stroke="currentColor" stroke-width="1.00" stroke-linecap="butt" stroke-linejoin="miter">
	<path stroke='black'  d='M453.1,392.0 L453.1,383.0 M453.1,18.1 L453.1,27.1  '/>	<g transform="translate(453.1,413.9)" stroke="none" fill="black" font-family="Arial" font-size="12.00"  text-anchor="middle">
		<text><tspan font-family="Arial" > 70</tspan></text>
	</g>
</g>
<g fill="none" color="black" stroke="currentColor" stroke-width="1.00" stroke-linecap="butt" stroke-linejoin="miter">
	<path stroke='black'  d='M508.9,392.0 L508.9,383.0 M508.9,18.1 L508.9,27.1  '/>	<g transform="translate(508.9,413.9)" stroke="none" fill="black" font-family="Arial" font-size="12.00"  text-anchor="middle">
		<text><tspan font-family="Arial" > 80</tspan></text>
	</g>
</g>
<g fill="none" color="black" stroke="currentColor" stroke-width="1.00" stroke-linecap="butt" stroke-linejoin="miter">
	<path stroke='black'  d='M564.7,392.0 L564.7,383.0 M564.7,18.1 L564.7,27.1  '/>	<g transform="translate(564.7,413.9)" stroke="none" fill="black" font-family="Arial" font-size="12.00"  text-anchor="middle">
		<text><tspan font-family="Arial" > 90</tspan></text>
	</g>
</g>
<g fill="none" color="black" stroke="currentColor" stroke-width="1.00" stroke-linecap="butt" stroke-linejoin="miter">
</g>
<g fill="none" color="black" stroke="currentColor" stroke-width="1.00" stroke-linecap="butt" stroke-linejoin="miter">
	<path stroke='black'  d='M62.2,18.1 L62.2,392.0 L615.0,392.0 L615.0,18.1 L62.2,18.1 Z  '/></g>
<g fill="none" color="black" stroke="currentColor" stroke-width="1.00" stroke-linecap="butt" stroke-linejoin="miter">
</g>
	<g id="gnuplot_plot_1" ><title>pages+cached+noexternal+nojs</title>
<g fill="none" color="black" stroke="currentColor" stroke-width="1.00" stroke-linecap="butt" stroke-linejoin="miter">
	<g transform="translate(487.6,431.9)" stroke="none" fill="black" font-family="Arial" font-size="12.00"  text-anchor="end">
		<text><tspan font-family="Arial" >pages+cached+noexternal+nojs</tspan></text>
	</g>
</g>
<g fill="none" color="black" stroke="currentColor" stroke-width="1.00" stroke-linecap="butt" stroke-linejoin="miter">
	<path stroke='rgb(148,   0, 211)'  d='M495.9,428.0 L538.1,428.0 M62.2,384.8 L67.8,384.8 L73.4,384.8 L79.0,384.8 L84.5,384.8 L90.1,384.8
		L95.7,384.8 L101.3,384.8 L106.9,384.8 L112.5,384.8 L118.0,384.8 L123.6,384.8 L129.2,384.8 L134.8,384.8
		L140.4,384.8 L146.0,384.8 L151.5,384.8 L157.1,384.8 L162.7,384.8 L168.3,384.8 L173.9,384.8 L179.5,384.8
		L185.0,384.8 L190.6,384.8 L196.2,384.8 L201.8,384.8 L207.4,384.8 L213.0,384.8 L218.5,384.8 L224.1,384.8
		L229.7,384.8 L235.3,384.8 L240.9,384.8 L246.5,384.8 L252.1,384.8 L257.6,384.8 L263.2,384.8 L268.8,384.8
		L274.4,384.8 L280.0,384.8 L285.6,384.8 L291.1,384.8 L296.7,384.8 L302.3,384.8 L307.9,384.8 L313.5,384.8
		L319.1,384.8 L324.6,384.8 L330.2,384.8 L335.8,384.8 L341.4,384.8 L347.0,384.8 L352.6,384.8 L358.1,384.8
		L363.7,384.8 L369.3,384.8 L374.9,384.8 L380.5,384.8 L386.1,384.8 L391.6,384.8 L397.2,384.8 L402.8,384.8
		L408.4,384.8 L414.0,384.8 L419.6,384.8 L425.1,384.8 L430.7,384.8 L436.3,384.8 L441.9,384.8 L447.5,384.8
		L453.1,384.8 L458.7,384.8 L464.2,384.8 L469.8,384.8 L475.4,384.8 L481.0,384.8 L486.6,384.8 L492.2,384.8
		L497.7,384.8 L503.3,384.8 L508.9,384.8 L514.5,384.8 L520.1,384.8 L525.7,384.8 L531.2,384.8 L536.8,384.8
		L542.4,384.8 L548.0,384.8 L553.6,384.8 L559.2,384.8 L564.7,384.8 L570.3,384.8 L575.9,384.8 L581.5,384.8
		L587.1,384.8 L592.7,384.8 L598.2,384.8 L603.8,384.8 L609.4,384.8 L615.0,384.8  '/></g>
	</g>
	<g id="gnuplot_plot_2" ><title>pages+cached+noexternal+nofonts+nosvg+noimg</title>
<g fill="none" color="black" stroke="currentColor" stroke-width="1.00" stroke-linecap="butt" stroke-linejoin="miter">
	<g transform="translate(487.6,449.9)" stroke="none" fill="black" font-family="Arial" font-size="12.00"  text-anchor="end">
		<text><tspan font-family="Arial" >pages+cached+noexternal+nofonts+nosvg+noimg</tspan></text>
	</g>
</g>
<g fill="none" color="black" stroke="currentColor" stroke-width="1.00" stroke-linecap="butt" stroke-linejoin="miter">
	<path stroke='rgb(  0, 158, 115)'  d='M495.9,446.0 L538.1,446.0 M62.2,163.0 L67.8,163.0 L73.4,163.0 L79.0,25.3 L84.5,163.0 L90.1,163.0
		L95.7,340.9 L101.3,163.0 L106.9,163.0 L112.5,163.0 L118.0,163.0 L123.6,163.0 L129.2,163.0 L134.8,163.0
		L140.4,340.9 L146.0,25.3 L151.5,306.8 L157.1,163.0 L162.7,163.0 L168.3,153.3 L173.9,340.9 L179.5,163.0
		L185.0,153.3 L190.6,153.3 L196.2,153.3 L201.8,163.0 L207.4,163.0 L213.0,153.3 L218.5,163.0 L224.1,163.0
		L229.7,306.8 L235.3,340.9 L240.9,153.3 L246.5,153.3 L252.1,163.0 L257.6,129.0 L263.2,163.0 L268.8,163.0
		L274.4,54.7 L280.0,163.0 L285.6,163.0 L291.1,163.0 L296.7,163.0 L302.3,129.0 L307.9,306.8 L313.5,340.9
		L319.1,163.0 L324.6,153.3 L330.2,163.0 L335.8,163.0 L341.4,340.9 L347.0,163.0 L352.6,153.3 L358.1,163.0
		L363.7,163.0 L369.3,163.0 L374.9,25.3 L380.5,153.3 L386.1,163.0 L391.6,306.8 L397.2,153.3 L402.8,340.9
		L408.4,25.3 L414.0,340.9 L419.6,153.3 L425.1,119.3 L430.7,340.9 L436.3,129.0 L441.9,163.0 L447.5,153.3
		L453.1,129.0 L458.7,129.0 L464.2,340.9 L469.8,119.3 L475.4,306.8 L481.0,163.0 L486.6,153.3 L492.2,340.9
		L497.7,163.0 L503.3,25.3 L508.9,163.0 L514.5,340.9 L520.1,340.9 L525.7,25.3 L531.2,163.0 L536.8,163.0
		L542.4,163.0 L548.0,119.3 L553.6,25.3 L559.2,25.3 L564.7,340.9 L570.3,129.0 L575.9,163.0 L581.5,163.0
		L587.1,163.0 L592.7,163.0 L598.2,163.0 L603.8,306.8 L609.4,163.0 L615.0,340.9  '/></g>
	</g>
	<g id="gnuplot_plot_3" ><title>score p10=0.1</title>
<g fill="none" color="black" stroke="currentColor" stroke-width="1.00" stroke-linecap="butt" stroke-linejoin="miter">
	<g transform="translate(487.6,467.9)" stroke="none" fill="black" font-family="Arial" font-size="12.00"  text-anchor="end">
		<text><tspan font-family="Arial" >score p10=0.1</tspan></text>
	</g>
</g>
<g fill="none" color="black" stroke="currentColor" stroke-width="1.00" stroke-linecap="butt" stroke-linejoin="miter">
	<path stroke='rgb( 86, 180, 233)'  d='M495.9,464.0 L538.1,464.0 M62.2,272.0 L67.8,272.0 L73.4,272.0 L79.0,272.0 L84.5,272.0 L90.1,272.0
		L95.7,272.0 L101.3,272.0 L106.9,272.0 L112.5,272.0 L118.0,272.0 L123.6,272.0 L129.2,272.0 L134.8,272.0
		L140.4,272.0 L146.0,272.0 L151.5,272.0 L157.1,272.0 L162.7,272.0 L168.3,272.0 L173.9,272.0 L179.5,272.0
		L185.0,272.0 L190.6,272.0 L196.2,272.0 L201.8,272.0 L207.4,272.0 L213.0,272.0 L218.5,272.0 L224.1,272.0
		L229.7,272.0 L235.3,272.0 L240.9,272.0 L246.5,272.0 L252.1,272.0 L257.6,272.0 L263.2,272.0 L268.8,272.0
		L274.4,272.0 L280.0,272.0 L285.6,272.0 L291.1,272.0 L296.7,272.0 L302.3,272.0 L307.9,272.0 L313.5,272.0
		L319.1,272.0 L324.6,272.0 L330.2,272.0 L335.8,272.0 L341.4,272.0 L347.0,272.0 L352.6,272.0 L358.1,272.0
		L363.7,272.0 L369.3,272.0 L374.9,272.0 L380.5,272.0 L386.1,272.0 L391.6,272.0 L397.2,272.0 L402.8,272.0
		L408.4,272.0 L414.0,272.0 L419.6,272.0 L425.1,272.0 L430.7,272.0 L436.3,272.0 L441.9,272.0 L447.5,272.0
		L453.1,272.0 L458.7,272.0 L464.2,272.0 L469.8,272.0 L475.4,272.0 L481.0,272.0 L486.6,272.0 L492.2,272.0
		L497.7,272.0 L503.3,272.0 L508.9,272.0 L514.5,272.0 L520.1,272.0 L525.7,272.0 L531.2,272.0 L536.8,272.0
		L542.4,272.0 L548.0,272.0 L553.6,272.0 L559.2,272.0 L564.7,272.0 L570.3,272.0 L575.9,272.0 L581.5,272.0
		L587.1,272.0 L592.7,272.0 L598.2,272.0 L603.8,272.0 L609.4,272.0 L615.0,272.0  '/></g>
	</g>
	<g id="gnuplot_plot_4" ><title>score median=0.25</title>
<g fill="none" color="black" stroke="currentColor" stroke-width="1.00" stroke-linecap="butt" stroke-linejoin="miter">
	<g transform="translate(487.6,485.9)" stroke="none" fill="black" font-family="Arial" font-size="12.00"  text-anchor="end">
		<text><tspan font-family="Arial" >score median=0.25</tspan></text>
	</g>
</g>
<g fill="none" color="black" stroke="currentColor" stroke-width="1.00" stroke-linecap="butt" stroke-linejoin="miter">
	<path stroke='rgb(230, 159,   0)'  d='M495.9,482.0 L538.1,482.0 M62.2,102.9 L67.8,102.9 L73.4,102.9 L79.0,102.9 L84.5,102.9 L90.1,102.9
		L95.7,102.9 L101.3,102.9 L106.9,102.9 L112.5,102.9 L118.0,102.9 L123.6,102.9 L129.2,102.9 L134.8,102.9
		L140.4,102.9 L146.0,102.9 L151.5,102.9 L157.1,102.9 L162.7,102.9 L168.3,102.9 L173.9,102.9 L179.5,102.9
		L185.0,102.9 L190.6,102.9 L196.2,102.9 L201.8,102.9 L207.4,102.9 L213.0,102.9 L218.5,102.9 L224.1,102.9
		L229.7,102.9 L235.3,102.9 L240.9,102.9 L246.5,102.9 L252.1,102.9 L257.6,102.9 L263.2,102.9 L268.8,102.9
		L274.4,102.9 L280.0,102.9 L285.6,102.9 L291.1,102.9 L296.7,102.9 L302.3,102.9 L307.9,102.9 L313.5,102.9
		L319.1,102.
